X:444
T: Ihr Felsen seufzt, ihr Marmorstein (5-40), S. 67
N: P0714
O: Lothringen
S: MERKELBACH-PINCK, Angelika: Verklingende Weisen, Bd 5, Kassel 1962]
R: geistliches, religiöses Lied]
M: 3/4
L: 1/8
K: G
D2 | D2G2G2 | G2B2A2 | B4B2 | B4
BA | B4cd | edc2B2 | A6 | G4
D2 | D2G2G2 | G2B2A2 | B4B2 | B4
BA | B4cd | edc2B2 | A6 | G4
FG | A2G2F2 | G2A2B2 | c4
B2 | B4c2 | d4B2 | B2A2
D2 | D2G2G2 | G2B2A2 | B4B2 | B4
BA | G4AB | d2c2B2 | A6 | G4

